X: 31
T:Mixed Branle, Aridan
M:C|
L:1/4
B:Thoinot Arbeau : Orchesographie, 1589
Z:Steve Mansfield March 2001
K:C
GA BB | cc BA | Gz Fz Ez ::
F2 G2 | EB AG | F2 EE | FD  EF |
G2 E2 | GA BB | cc B2 | c z B z |
AA GG | FF E2 | FG E>B | A/G/ F/F/ Ez :|

